flaticon/gastronomy/cookies.svg

<svg xmlns="http://www.w3.org/2000/svg" width="32" height="32" viewBox="0 0 24 24">
    <path d="M 23.128906 17.8125 C 22.945312 17.800781 22.789062 17.769531 22.652344 17.714844 C 22.277344 17.5625 21.988281 17.277344 21.832031 16.910156 C 21.675781 16.542969 21.671875 16.132812 21.820312 15.761719 C 21.960938 15.414062 22.230469 15.128906 22.578125 14.96875 L 23.3125 14.628906 L 22.621094 14.210938 C 22.054688 13.871094 21.820312 13.179688 22.066406 12.570312 C 22.113281 12.449219 22.1875 12.332031 22.292969 12.207031 L 22.796875 11.617188 L 22.027344 11.507812 C 21.859375 11.484375 21.707031 11.441406 21.5625 11.386719 C 20.550781 10.976562 20.054688 9.820312 20.464844 8.804688 C 20.550781 8.589844 20.679688 8.386719 20.84375 8.207031 L 21.152344 7.871094 L 20.792969 7.585938 C 20.300781 7.191406 19.769531 6.847656 19.207031 6.566406 C 18.085938 5.996094 16.882812 5.671875 15.664062 5.589844 C 14.601562 2.285156 11.566406 0 8.167969 0 C 3.808594 0 0.257812 3.652344 0.257812 8.140625 C 0.257812 11.746094 2.566406 14.898438 5.902344 15.925781 C 5.972656 16.503906 6.101562 17.082031 6.285156 17.648438 C 7.050781 19.988281 8.679688 21.886719 10.875 23 C 12.1875 23.664062 13.605469 24 15.03125 24 C 15.746094 24 16.460938 23.914062 17.164062 23.746094 C 17.175781 23.746094 17.1875 23.75 17.199219 23.75 C 17.285156 23.75 17.371094 23.71875 17.445312 23.671875 C 17.597656 23.628906 17.753906 23.589844 17.90625 23.539062 C 20.246094 22.773438 22.148438 21.140625 23.261719 18.949219 C 23.332031 18.804688 23.394531 18.660156 23.457031 18.511719 L 23.742188 17.84375 Z M 1.117188 8.140625 C 1.117188 7.894531 1.128906 7.648438 1.152344 7.410156 C 1.523438 7.648438 2.214844 8.003906 3.203125 8.136719 C 3.222656 8.140625 3.238281 8.140625 3.257812 8.140625 C 3.46875 8.140625 3.652344 7.984375 3.683594 7.769531 C 3.714844 7.535156 3.550781 7.320312 3.316406 7.289062 C 3.25 7.277344 3.191406 7.265625 3.132812 7.253906 C 3.472656 6.941406 3.6875 6.496094 3.6875 6 C 3.6875 5.761719 3.496094 5.570312 3.257812 5.570312 C 3.023438 5.570312 2.832031 5.761719 2.832031 6 C 2.832031 6.472656 2.445312 6.855469 1.972656 6.855469 C 1.957031 6.855469 1.941406 6.863281 1.925781 6.863281 C 1.589844 6.695312 1.410156 6.542969 1.398438 6.535156 C 1.371094 6.511719 1.339844 6.496094 1.308594 6.480469 C 2.039062 3.261719 4.832031 0.855469 8.167969 0.855469 C 9.488281 0.855469 10.75 1.25 11.828125 1.929688 C 11.824219 2.152344 11.789062 2.535156 11.648438 2.914062 C 10.191406 2.433594 10.023438 2.542969 9.878906 2.644531 C 9.679688 2.773438 9.628906 3.039062 9.757812 3.238281 C 9.863281 3.390625 10.046875 3.457031 10.21875 3.414062 C 10.367188 3.429688 10.75 3.53125 11.15625 3.660156 C 11.0625 3.742188 10.957031 3.816406 10.832031 3.878906 C 10.367188 3.992188 9.65625 4.375 9.6875 5.160156 C 9.695312 5.390625 9.886719 5.570312 10.113281 5.570312 C 10.121094 5.570312 10.125 5.570312 10.132812 5.570312 C 10.367188 5.5625 10.550781 5.359375 10.542969 5.125 C 10.53125 4.835938 11.058594 4.703125 11.058594 4.703125 L 11.148438 4.675781 C 12.167969 4.210938 12.515625 3.234375 12.632812 2.519531 C 13.570312 3.316406 14.316406 4.363281 14.757812 5.574219 C 14.464844 5.585938 14.171875 5.609375 13.878906 5.644531 C 13.757812 5.660156 13.636719 5.6875 13.519531 5.707031 C 13.347656 5.734375 13.179688 5.761719 13.011719 5.800781 C 12.816406 5.84375 12.628906 5.898438 12.441406 5.957031 C 12.351562 5.980469 12.265625 6 12.175781 6.027344 C 12.167969 6.03125 12.15625 6.035156 12.148438 6.039062 C 11.976562 6.097656 11.808594 6.164062 11.640625 6.234375 C 11.523438 6.277344 11.402344 6.320312 11.289062 6.371094 C 11.238281 6.394531 11.1875 6.421875 11.136719 6.445312 C 9.90625 7.019531 8.835938 7.847656 7.976562 8.882812 C 7.617188 8.429688 7.070312 8.140625 6.472656 8.140625 C 5.410156 8.140625 4.542969 9.007812 4.542969 10.070312 C 4.542969 11.0625 5.304688 11.875 6.273438 11.976562 C 6.25 12.046875 6.226562 12.117188 6.207031 12.183594 C 6.152344 12.367188 6.109375 12.550781 6.066406 12.734375 C 6.042969 12.835938 6.019531 12.933594 6 13.035156 C 5.957031 13.253906 5.925781 13.476562 5.898438 13.703125 C 5.890625 13.769531 5.878906 13.839844 5.871094 13.910156 C 5.847656 14.15625 5.839844 14.40625 5.835938 14.660156 C 5.835938 14.699219 5.828125 14.742188 5.828125 14.78125 C 5.828125 14.804688 5.832031 14.828125 5.832031 14.847656 C 5.832031 14.902344 5.828125 14.953125 5.828125 15.003906 C 3.027344 13.992188 1.117188 11.253906 1.117188 8.140625 Z M 7.429688 9.605469 C 7.425781 9.617188 7.417969 9.625 7.410156 9.636719 C 7.386719 9.671875 7.363281 9.699219 7.339844 9.734375 C 7.238281 9.890625 7.148438 10.054688 7.054688 10.214844 C 7.039062 10.242188 7.023438 10.265625 7.007812 10.289062 C 6.996094 10.316406 6.980469 10.339844 6.964844 10.363281 C 6.933594 10.421875 6.902344 10.476562 6.875 10.53125 C 6.859375 10.5625 6.839844 10.589844 6.824219 10.617188 C 6.769531 10.722656 6.730469 10.835938 6.679688 10.945312 C 6.667969 10.964844 6.65625 10.988281 6.648438 11.011719 C 6.628906 11.054688 6.605469 11.09375 6.589844 11.132812 C 6.546875 11.136719 6.511719 11.140625 6.472656 11.140625 C 5.882812 11.140625 5.402344 10.660156 5.402344 10.070312 C 5.402344 9.480469 5.882812 9 6.472656 9 C 6.882812 9 7.257812 9.242188 7.433594 9.605469 C 7.429688 9.605469 7.429688 9.605469 7.429688 9.605469 Z M 17.691406 22.707031 C 17.570312 22.015625 16.972656 21.285156 16.0625 20.824219 C 15.851562 20.71875 15.59375 20.800781 15.488281 21.011719 C 15.378906 21.222656 15.464844 21.480469 15.675781 21.589844 C 16.417969 21.964844 16.851562 22.550781 16.851562 22.941406 C 14.964844 23.363281 13.011719 23.121094 11.265625 22.234375 C 10.972656 22.085938 10.691406 21.917969 10.421875 21.742188 C 11.070312 21.546875 11.582031 21.023438 11.84375 20.617188 C 12.285156 19.789062 13.289062 19.886719 13.335938 19.894531 C 13.566406 19.921875 13.785156 19.753906 13.8125 19.519531 C 13.839844 19.285156 13.675781 19.074219 13.441406 19.042969 C 13.371094 19.035156 11.8125 18.859375 11.105469 20.183594 C 11.074219 20.234375 10.328125 21.367188 9.382812 20.800781 C 9.320312 20.765625 9.257812 20.75 9.191406 20.746094 C 8.242188 19.820312 7.523438 18.675781 7.101562 17.382812 C 6.929688 16.863281 6.816406 16.335938 6.75 15.808594 L 6.730469 15.632812 C 6.714844 15.457031 6.703125 15.28125 6.695312 15.105469 C 6.691406 15.011719 6.6875 14.917969 6.6875 14.828125 C 6.6875 14.777344 6.691406 14.726562 6.691406 14.675781 C 6.695312 14.441406 6.707031 14.207031 6.726562 13.980469 C 6.734375 13.914062 6.742188 13.851562 6.75 13.785156 C 6.777344 13.582031 6.804688 13.378906 6.84375 13.179688 C 6.863281 13.085938 6.886719 12.996094 6.90625 12.902344 C 6.945312 12.734375 6.988281 12.566406 7.035156 12.402344 C 7.042969 12.378906 7.054688 12.351562 7.0625 12.328125 C 7.425781 12.402344 7.800781 12.394531 8.164062 12.273438 C 8.296875 12.230469 8.421875 12.175781 8.539062 12.109375 C 8.675781 12.535156 8.972656 12.90625 9.398438 13.121094 C 9.460938 13.15625 9.527344 13.167969 9.589844 13.167969 C 9.746094 13.167969 9.898438 13.082031 9.972656 12.933594 C 10.082031 12.722656 9.996094 12.464844 9.785156 12.359375 C 9.363281 12.144531 9.195312 11.628906 9.410156 11.207031 C 9.515625 10.996094 9.429688 10.738281 9.21875 10.628906 C 9.007812 10.523438 8.75 10.609375 8.644531 10.820312 C 8.488281 11.125 8.222656 11.351562 7.898438 11.460938 C 7.722656 11.515625 7.539062 11.53125 7.363281 11.511719 C 7.394531 11.433594 7.429688 11.355469 7.464844 11.277344 C 7.511719 11.183594 7.554688 11.089844 7.601562 10.996094 C 7.628906 10.941406 7.65625 10.886719 7.683594 10.835938 C 7.730469 10.753906 7.777344 10.675781 7.820312 10.59375 C 7.886719 10.484375 7.949219 10.375 8.019531 10.269531 C 8.082031 10.167969 8.152344 10.070312 8.21875 9.972656 C 8.339844 9.804688 8.457031 9.636719 8.589844 9.480469 C 8.597656 9.46875 8.609375 9.457031 8.617188 9.445312 C 9.289062 8.640625 10.109375 7.960938 11.035156 7.453125 C 11.097656 7.417969 11.164062 7.390625 11.226562 7.355469 C 11.394531 7.269531 11.5625 7.183594 11.738281 7.109375 C 11.867188 7.054688 12.003906 7.007812 12.136719 6.957031 C 12.257812 6.914062 12.375 6.863281 12.5 6.824219 C 12.578125 6.800781 12.660156 6.78125 12.742188 6.757812 C 12.910156 6.707031 13.078125 6.664062 13.25 6.625 C 13.328125 6.609375 13.410156 6.59375 13.488281 6.578125 C 13.6875 6.539062 13.886719 6.507812 14.09375 6.484375 C 14.140625 6.480469 14.1875 6.472656 14.234375 6.46875 C 14.5 6.441406 14.769531 6.425781 15.042969 6.425781 C 15.09375 6.425781 15.140625 6.429688 15.191406 6.433594 C 15.242188 6.4375 15.289062 6.441406 15.335938 6.441406 L 15.742188 6.457031 C 15.886719 6.46875 16.03125 6.484375 16.175781 6.503906 C 15.929688 7.457031 16.363281 8.488281 17.277344 8.949219 C 17.339844 8.980469 17.40625 8.996094 17.472656 8.996094 C 17.628906 8.996094 17.777344 8.910156 17.855469 8.761719 C 17.960938 8.550781 17.875 8.292969 17.664062 8.1875 C 17.101562 7.898438 16.839844 7.25 17.019531 6.664062 C 17.636719 6.8125 18.238281 7.035156 18.820312 7.328125 C 19.203125 7.523438 19.574219 7.75 19.921875 8 C 19.820312 8.152344 19.738281 8.316406 19.667969 8.484375 C 19.085938 9.9375 19.789062 11.59375 21.242188 12.179688 C 21.257812 12.1875 21.273438 12.191406 21.292969 12.199219 C 21.285156 12.214844 21.277344 12.234375 21.269531 12.25 C 20.949219 13.046875 21.125 13.925781 21.675781 14.535156 C 21.390625 14.78125 21.167969 15.089844 21.023438 15.441406 C 20.789062 16.023438 20.796875 16.664062 21.042969 17.246094 C 21.289062 17.824219 21.746094 18.273438 22.332031 18.507812 C 22.382812 18.527344 22.4375 18.546875 22.492188 18.566406 C 21.492188 20.539062 19.785156 22.003906 17.691406 22.707031 Z M 17.691406 22.707031"/>
    <path d="M16.207031 12.011719C16.441406 11.550781 16.480469 11.027344 16.320312 10.539062 16.160156 10.050781 15.820312 9.652344 15.359375 9.417969 14.410156 8.9375 13.25 9.320312 12.769531 10.265625 12.285156 11.214844 12.667969 12.378906 13.617188 12.859375 13.890625 12.996094 14.1875 13.066406 14.484375 13.066406 14.6875 13.066406 14.890625 13.035156 15.085938 12.972656 15.578125 12.8125 15.972656 12.46875 16.207031 12.011719zM15.441406 11.625C15.3125 11.878906 15.09375 12.066406 14.820312 12.15625 14.546875 12.246094 14.257812 12.222656 14.003906 12.09375 13.476562 11.828125 13.265625 11.179688 13.53125 10.65625 13.71875 10.28125 14.097656 10.066406 14.488281 10.066406 14.652344 10.066406 14.816406 10.105469 14.972656 10.183594 15.226562 10.3125 15.417969 10.535156 15.503906 10.804688 15.59375 11.078125 15.570312 11.367188 15.441406 11.625zM6.902344 6C7.964844 6 8.828125 5.132812 8.828125 4.070312 8.828125 3.007812 7.964844 2.140625 6.902344 2.140625 5.835938 2.140625 4.972656 3.007812 4.972656 4.070312 4.972656 5.132812 5.835938 6 6.902344 6zM6.902344 3C7.492188 3 7.972656 3.480469 7.972656 4.070312 7.972656 4.660156 7.492188 5.140625 6.902344 5.140625 6.308594 5.140625 5.828125 4.660156 5.828125 4.070312 5.828125 3.480469 6.308594 3 6.902344 3zM12.648438 14.769531C12.1875 14.535156 11.664062 14.496094 11.175781 14.65625 10.6875 14.816406 10.289062 15.15625 10.054688 15.617188 9.820312 16.078125 9.78125 16.597656 9.941406 17.089844 10.101562 17.578125 10.445312 17.976562 10.902344 18.210938 11.179688 18.351562 11.476562 18.417969 11.769531 18.417969 12.476562 18.417969 13.15625 18.03125 13.496094 17.359375 13.976562 16.414062 13.59375 15.25 12.648438 14.769531zM12.730469 16.972656C12.464844 17.5 11.816406 17.710938 11.289062 17.445312 11.035156 17.316406 10.847656 17.09375 10.757812 16.824219 10.667969 16.550781 10.691406 16.261719 10.820312 16.003906 10.949219 15.75 11.167969 15.558594 11.441406 15.472656 11.550781 15.4375 11.664062 15.417969 11.777344 15.417969 11.941406 15.417969 12.105469 15.457031 12.257812 15.535156 12.785156 15.800781 12.996094 16.445312 12.730469 16.972656zM18.195312 16.140625C17.738281 15.910156 17.214844 15.867188 16.726562 16.027344 16.234375 16.1875 15.835938 16.53125 15.605469 16.988281 15.371094 17.449219 15.332031 17.972656 15.492188 18.460938 15.652344 18.949219 15.992188 19.347656 16.453125 19.582031 16.730469 19.722656 17.027344 19.789062 17.320312 19.789062 18.023438 19.789062 18.703125 19.402344 19.042969 18.734375 19.523438 17.785156 19.144531 16.621094 18.195312 16.140625zM18.28125 18.34375C18.011719 18.871094 17.367188 19.082031 16.839844 18.816406 16.585938 18.6875 16.394531 18.464844 16.304688 18.195312 16.21875 17.921875 16.238281 17.632812 16.367188 17.378906 16.5 17.121094 16.71875 16.933594 16.992188 16.84375 17.101562 16.808594 17.214844 16.789062 17.324219 16.789062 17.492188 16.789062 17.65625 16.828125 17.808594 16.90625 18.335938 17.171875 18.546875 17.820312 18.28125 18.34375zM18.28125 18.34375"/>
</svg>

<svg xmlns="http://www.w3.org/2000/svg" width="32" height="32" viewBox="0 0 24 24">
    <path d="M23.129 17.813a1.536 1.536 0 0 1-.477-.098 1.5 1.5 0 0 1-.832-1.953c.14-.348.41-.633.758-.793l.735-.34-.692-.418a1.328 1.328 0 0 1-.555-1.64c.047-.122.122-.239.227-.364l.504-.59-.77-.11a2.133 2.133 0 0 1-.465-.12 1.988 1.988 0 0 1-1.097-2.582c.086-.215.215-.418.379-.598l.308-.336-.359-.285a8.913 8.913 0 0 0-1.586-1.02 9.157 9.157 0 0 0-3.543-.976C14.602 2.285 11.566 0 8.168 0 3.808 0 .258 3.652.258 8.14c0 3.606 2.308 6.758 5.644 7.786.07.578.2 1.156.383 1.722A9.149 9.149 0 0 0 10.875 23c1.313.664 2.73 1 4.156 1 .715 0 1.43-.086 2.133-.254.012 0 .023.004.035.004a.47.47 0 0 0 .246-.078c.153-.043.309-.082.461-.133a9.17 9.17 0 0 0 5.356-4.59c.07-.144.133-.289.195-.437l.285-.668zM1.117 8.14c0-.246.012-.493.035-.73.371.237 1.063.593 2.051.726.02.004.035.004.055.004a.427.427 0 0 0 .059-.852l-.184-.035A1.7 1.7 0 0 0 3.687 6a.428.428 0 1 0-.855 0 .859.859 0 0 1-.86.855c-.015 0-.03.008-.046.008-.336-.168-.516-.32-.528-.328-.027-.023-.058-.039-.09-.055C2.04 3.262 4.833.855 8.169.855c1.32 0 2.582.395 3.66 1.075a3.1 3.1 0 0 1-.18.984c-1.457-.48-1.625-.371-1.77-.27a.428.428 0 0 0-.12.594c.105.153.289.219.46.176.15.016.532.117.938.246a1.52 1.52 0 0 1-.324.219c-.465.113-1.176.496-1.145 1.281.008.23.2.41.426.41h.02a.43.43 0 0 0 .41-.445c-.012-.29.516-.422.516-.422l.09-.027c1.019-.465 1.367-1.442 1.484-2.156a7.29 7.29 0 0 1 2.125 3.054c-.293.012-.586.035-.88.07-.12.016-.241.043-.358.063a6.806 6.806 0 0 0-1.078.25c-.09.023-.176.043-.266.07l-.028.012c-.171.059-.34.125-.507.195-.118.043-.239.086-.352.137l-.152.074a9.085 9.085 0 0 0-3.16 2.438 1.928 1.928 0 0 0-1.504-.742c-1.063 0-1.93.867-1.93 1.93 0 .992.762 1.804 1.73 1.906-.023.07-.046.14-.066.207a9.489 9.489 0 0 0-.14.55c-.024.102-.047.2-.067.301a9.157 9.157 0 0 0-.102.668c-.007.067-.02.137-.027.207a9.457 9.457 0 0 0-.035.75c0 .04-.008.082-.008.121 0 .024.004.047.004.067 0 .054-.004.105-.004.156-2.8-1.012-4.71-3.75-4.71-6.863zM7.43 9.605c-.004.012-.012.02-.02.032-.023.035-.047.062-.07.097-.102.157-.192.32-.285.48a1.23 1.23 0 0 1-.047.075.46.46 0 0 1-.043.074c-.031.059-.063.114-.09.168-.016.031-.035.059-.05.086-.055.106-.095.219-.145.328a.346.346 0 0 0-.032.067c-.02.043-.043.082-.058.12-.043.005-.078.009-.117.009-.59 0-1.07-.48-1.07-1.07 0-.59.48-1.071 1.07-1.071.41 0 .785.242.96.605H7.43zM17.69 22.707c-.12-.691-.718-1.422-1.628-1.883a.43.43 0 0 0-.387.766c.742.375 1.176.96 1.176 1.351a8.277 8.277 0 0 1-5.586-.707 8.984 8.984 0 0 1-.844-.492c.648-.195 1.16-.719 1.422-1.125.441-.828 1.445-.73 1.492-.722a.43.43 0 0 0 .105-.852c-.07-.008-1.628-.184-2.336 1.14-.03.051-.777 1.184-1.722.618a.43.43 0 0 0-.192-.055 8.264 8.264 0 0 1-2.09-3.363 8.308 8.308 0 0 1-.351-1.574l-.02-.176a11.947 11.947 0 0 1-.043-.805c0-.05.004-.101.004-.152a10.1 10.1 0 0 1 .036-.696l.023-.195c.027-.203.055-.406.094-.605.02-.094.043-.184.062-.278.04-.168.082-.336.13-.5.007-.023.019-.05.027-.074a2.115 2.115 0 0 0 1.476-.219c.137.426.434.797.86 1.012a.428.428 0 0 0 .387-.762.857.857 0 0 1-.376-1.152.429.429 0 1 0-.766-.387 1.3 1.3 0 0 1-.746.64c-.175.056-.359.071-.535.052.032-.078.067-.157.102-.235.047-.093.09-.187.137-.28.027-.056.054-.11.082-.161.046-.082.093-.16.136-.242.067-.11.13-.219.2-.324.062-.102.132-.2.199-.297.12-.168.238-.336.37-.493.009-.011.02-.023.028-.035a8.45 8.45 0 0 1 2.418-1.992c.063-.035.13-.062.192-.098.168-.085.335-.171.511-.246.13-.054.266-.101.399-.152.12-.043.238-.094.363-.133.078-.023.16-.043.242-.066.168-.051.336-.094.508-.133l.238-.047c.2-.039.399-.07.606-.094.047-.004.094-.011.14-.015a7.89 7.89 0 0 1 .809-.043c.05 0 .098.004.148.008.051.003.098.007.145.007l.406.016c.145.012.29.027.434.047a2.14 2.14 0 0 0 1.101 2.445.432.432 0 0 0 .578-.188.429.429 0 0 0-.19-.574 1.291 1.291 0 0 1-.645-1.523A8.337 8.337 0 0 1 19.922 8a2.86 2.86 0 0 0-.254.484 2.846 2.846 0 0 0 1.574 3.696c.016.008.031.011.051.02l-.023.05a2.183 2.183 0 0 0 .406 2.285 2.35 2.35 0 0 0-.633 2.71 2.334 2.334 0 0 0 1.45 1.321 8.31 8.31 0 0 1-4.802 4.141zm0 0"/>
    <path d="M16.207 12.012c.234-.461.273-.985.113-1.473a1.92 1.92 0 0 0-.96-1.121 1.928 1.928 0 1 0 .848 2.594zm-.766-.387a1.06 1.06 0 0 1-.62.531 1.072 1.072 0 1 1 .152-1.973c.254.13.445.352.53.622.09.273.067.562-.062.82zm0 0M6.902 6a1.93 1.93 0 0 0 0-3.86c-1.066 0-1.93.868-1.93 1.93 0 1.063.864 1.93 1.93 1.93zm0-3c.59 0 1.07.48 1.07 1.07a1.072 1.072 0 0 1-2.144 0c0-.59.48-1.07 1.074-1.07zm0 0M12.648 14.77a1.913 1.913 0 0 0-1.472-.114c-.489.16-.887.5-1.121.961-.235.461-.274.98-.114 1.473.16.488.504.887.961 1.12a1.931 1.931 0 0 0 2.594-.852c.48-.944.098-2.108-.848-2.588zm.082 2.203a1.075 1.075 0 0 1-1.44.472 1.071 1.071 0 0 1-.47-1.441c.13-.254.348-.445.621-.531a1.05 1.05 0 0 1 .816.063c.528.265.74.91.473 1.437zm0 0M18.195 16.14a1.92 1.92 0 0 0-1.468-.113 1.91 1.91 0 0 0-1.122.961c-.234.461-.273.985-.113 1.473a1.92 1.92 0 0 0 1.828 1.328c.703 0 1.383-.387 1.723-1.055.48-.949.102-2.113-.848-2.593zm.086 2.204c-.27.527-.914.738-1.441.472a1.077 1.077 0 0 1-.535-.62 1.071 1.071 0 1 1 1.977.148zm0 0"/>
</svg>
